!!!OTL: Der Tod als Schnitter.
!!!ARE: Europa, Mitteleuropa, Deutschland
!!!SCT: A0650
!!!TXL: @@DE
!!!YEM: Copyright 1995, estate of Helmut Schaffrath.
**kern	**text
!! Mixed meters:  3/2; 2/2
*M3/2	*
*met(C|3)	*
*clefC1	*
*k[b-]	*
*g:	*
=1	=1
!LO:TX:a:t=g moll.	!
2ryy	.
2ryy	.
{2g	I._Es
=2	=2
1g	iſt
2b-	ein
=3	=3
1a	Schnitter,
2g	.
=4	=4
1f	heißt
2e-	der
=5	=5
1d}	Tod,
{2dd	hat
=6	=6
*lig	*
2.dd	Gwalt
4cc	.
*Xlig	*
2b-	vom
=7	=7
*lig	*
2.cc	gro-
4b-	.
*Xlig	*
2a	-ßen
=8	=8
1.b-	Gott,
=9	=9
2r	.
2r}	.
{2g	I._Es
=10	=10
1g	iſt
2b-	ein
=11	=11
1a	Schnitter,
2g	.
=12	=12
1f	heißt
2e-	der
=13	=13
1d}	Tod,
{2dd	hat
=14	=14
*lig	*
2.dd	Gwalt
4cc	.
*Xlig	*
2b-	vom
=15	=15
*lig	*
2.cc	gro-
4b-	.
*Xlig	*
2a	-ßen
=16	=16
1.b-	Gott,
=17	=17
2r	.
2r}	.
{2dd	Heut
=18	=18
2.dd	wetʒt
4cc	er
2dd	das
=19	=19
2.b-	Meſ-
4cc	-ſer,
2dd	es
=20	=20
2.cc	ſchneidt
4b-	ſchon
2cc	viel
=21	=21
2.a	beſ-
4b-}	-ſer,
{2cc	bald
=22	=22
2.b-	wird
4a	er
2b-	drein
=23	=23
2.g	ſchnei-
4a	-den,
2b-	wir
=24	=24
2.a	müſ-
4g	-ſens
2a	nur
=25	=25
1f#i	lei-
!LO:TX:a:t=P:2d in parenthesis:problem	!
2d}	-den.
=26||	=26||
*M2/2	*
*met(c|)	*
{2dd	Hüt
4cc	dich,
4b-	ſchön's
=27	=27
4.a	Blü-
8a	-me-
2g;	-lein!
=28	=28
2r	.
2r}	.
{2dd	Heut
=29	=29
2.dd	wetʒt
4cc	er
2dd	das
=30	=30
2.b-	Meſ-
4cc	-ſer,
2dd	es
=31	=31
2.cc	ſchneidt
4b-	ſchon
2cc	viel
=32	=32
2.a	beſ-
4b-}	-ſer,
{2cc	bald
=33	=33
2.b-	wird
4a	er
2b-	drein
=34	=34
2.g	ſchnei-
4a	-den,
2b-	wir
=35	=35
2.a	müſ-
4g	-ſens
2a	nur
=36	=36
1f#i	lei-
!LO:TX:a:t=P:2d in parenthesis:problem	!
2d}	-den.
=37||	=37||
*M2/2	*
*met(c|)	*
{2dd	Hüt
4cc	dich,
4b-	ſchön's
=38	=38
4.a	Blü-
8a	-me-
2g;	-lein!
==	==
!!!GTL: Geistliche Volkslieder
!!!AGN: Romanze, Ballade, Lied, religioeses Lied
!!  Fl. Blatt von 1638 und oefter
!!!ONB: ESAC (Essen Associative Code) Database: ALTDEU
!!!AMT: irregular
!!!AIN: vox
!!!EED: Helmut Schaffrath
!!!EEV: 1.0
!!!RDF**kern: i = editorial accidental
!!!RDF**kern: l = terminal long
!!!URL-scan: https://rosdok.uni-rostock.de/mcrviewer/recordIdentifier/rosdok_ppn738218359/iview2/phys_0830.iview2?x=-495.6391625615763&y=2337.6586206834763&scale=0.4629418472063854&rotation=0&layout=singlePageLayout
!!!ENC: Anna Maria Matuszewska
!!!EEV: 2024/26/03
*-	*-
